%
(OnStepBOX Side G code)
(T3 D=2 CR=0 - ZMIN=-3 - flat end mill)
N10 G90 G94
N20 G17
N30 G21
(-Attention- Property Safe Retracts is set to Clearance Height.)
(Ensure the clearance height will clear the part and or fixtures.)
(Raise the Z-axis to a safe height before starting the program.)
(When using Fusion for Personal Use, the feedrate of rapid)
(moves is reduced to match the feedrate of cutting moves,)
(which can increase machining time. Unrestricted rapid moves)
(are available with a Fusion Subscription.)

(1)
N40 T3 M6
N50 S5000 M3
N60 G17 G90 G94
N70 G54
N80 M8
N90 G0 G43 Z8
N100 G0 X3.037 Y9.2
N110 Z8
N120 G1 Z1 F1000
N130 Z-0.8
N140 G18 G2 X3.237 Z-1 I0.2 K0
N150 G1 X3.337
N160 G17 G3 X3.537 Y9.4 I0 J0.2
N170 X2.537 I-0.5 J0
N180 X3.537 I0.5 J0
N190 X3.337 Y9.6 I-0.2 J0
N200 G1 X3.237
N210 G18 G3 X3.037 Z-0.8 I0 K0.2
N220 G1 Z3
N230 Y9.2
N240 Z0
N250 Z-1.8
N260 G2 X3.237 Z-2 I0.2 K0
N270 G1 X3.337
N280 G17 G3 X3.537 Y9.4 I0 J0.2
N290 X2.537 I-0.5 J0
N300 X3.537 I0.5 J0
N310 X3.337 Y9.6 I-0.2 J0
N320 G1 X3.237
N330 G18 G3 X3.037 Z-1.8 I0 K0.2
N340 G1 Z3
N350 Y9.2
N360 Z-0.5
N370 Z-2.3
N380 G2 X3.237 Z-2.5 I0.2 K0
N390 G1 X3.337
N400 G17 G3 X3.537 Y9.4 I0 J0.2
N410 X2.537 I-0.5 J0
N420 X3.537 I0.5 J0
N430 X3.337 Y9.6 I-0.2 J0
N440 G1 X3.237
N450 G18 G3 X3.037 Z-2.3 I0 K0.2
N460 G1 Z3
N470 Y9.2
N480 Z-1
N490 Z-2.8
N500 G2 X3.237 Z-3 I0.2 K0
N510 G1 X3.337
N520 G17 G3 X3.537 Y9.4 I0 J0.2
N530 X2.537 I-0.5 J0
N540 X3.537 I0.5 J0
N550 X3.337 Y9.6 I-0.2 J0
N560 G1 X3.237
N570 G18 G3 X3.037 Z-2.8 I0 K0.2
N580 G1 Z3
N590 X20.037 Y9.2
N600 Z1
N610 Z-0.8
N620 G2 X20.237 Z-1 I0.2 K0
N630 G1 X20.337
N640 G17 G3 X20.537 Y9.4 I0 J0.2
N650 X19.537 I-0.5 J0
N660 X20.537 I0.5 J0
N670 X20.337 Y9.6 I-0.2 J0
N680 G1 X20.237
N690 G18 G3 X20.037 Z-0.8 I0 K0.2
N700 G1 Z3
N710 Y9.2
N720 Z0
N730 Z-1.8
N740 G2 X20.237 Z-2 I0.2 K0
N750 G1 X20.337
N760 G17 G3 X20.537 Y9.4 I0 J0.2
N770 X19.537 I-0.5 J0
N780 X20.537 I0.5 J0
N790 X20.337 Y9.6 I-0.2 J0
N800 G1 X20.237
N810 G18 G3 X20.037 Z-1.8 I0 K0.2
N820 G1 Z3
N830 Y9.2
N840 Z-0.5
N850 Z-2.3
N860 G2 X20.237 Z-2.5 I0.2 K0
N870 G1 X20.337
N880 G17 G3 X20.537 Y9.4 I0 J0.2
N890 X19.537 I-0.5 J0
N900 X20.537 I0.5 J0
N910 X20.337 Y9.6 I-0.2 J0
N920 G1 X20.237
N930 G18 G3 X20.037 Z-2.3 I0 K0.2
N940 G1 Z3
N950 Y9.2
N960 Z-1
N970 Z-2.8
N980 G2 X20.237 Z-3 I0.2 K0
N990 G1 X20.337
N1000 G17 G3 X20.537 Y9.4 I0 J0.2
N1010 X19.537 I-0.5 J0
N1020 X20.537 I0.5 J0
N1030 X20.337 Y9.6 I-0.2 J0
N1040 G1 X20.237
N1050 G18 G3 X20.037 Z-2.8 I0 K0.2
N1060 G1 Z3
N1070 X22.95 Y-1.9
N1080 Z1
N1090 Z-0.8
N1100 G2 X23.15 Z-1 I0.2 K0
N1110 G1 X23.25
N1120 G17 G3 X23.45 Y-1.7 I0 J0.2
N1130 X18.95 I-2.25 J0
N1140 X23.45 I2.25 J0
N1150 X23.25 Y-1.5 I-0.2 J0
N1160 G1 X23.15
N1170 G18 G3 X22.95 Z-0.8 I0 K0.2
N1180 G1 Z3
N1190 Y-1.9
N1200 Z0
N1210 Z-1.8
N1220 G2 X23.15 Z-2 I0.2 K0
N1230 G1 X23.25
N1240 G17 G3 X23.45 Y-1.7 I0 J0.2
N1250 X18.95 I-2.25 J0
N1260 X23.45 I2.25 J0
N1270 X23.25 Y-1.5 I-0.2 J0
N1280 G1 X23.15
N1290 G18 G3 X22.95 Z-1.8 I0 K0.2
N1300 G1 Z3
N1310 Y-1.9
N1320 Z-0.5
N1330 Z-2.3
N1340 G2 X23.15 Z-2.5 I0.2 K0
N1350 G1 X23.25
N1360 G17 G3 X23.45 Y-1.7 I0 J0.2
N1370 X18.95 I-2.25 J0
N1380 X23.45 I2.25 J0
N1390 X23.25 Y-1.5 I-0.2 J0
N1400 G1 X23.15
N1410 G18 G3 X22.95 Z-2.3 I0 K0.2
N1420 G1 Z3
N1430 Y-1.9
N1440 Z-1
N1450 Z-2.8
N1460 G2 X23.15 Z-3 I0.2 K0
N1470 G1 X23.25
N1480 G17 G3 X23.45 Y-1.7 I0 J0.2
N1490 X18.95 I-2.25 J0
N1500 X23.45 I2.25 J0
N1510 X23.25 Y-1.5 I-0.2 J0
N1520 G1 X23.15
N1530 G18 G3 X22.95 Z-2.8 I0 K0.2
N1540 G1 Z8
(When using Fusion for Personal Use, the feedrate of rapid)
(moves is reduced to match the feedrate of cutting moves,)
(which can increase machining time. Unrestricted rapid moves)
(are available with a Fusion Subscription.)

(2D 2)
N1550 G17
N1560 G0 X-13.9 Y-1.95
N1570 G1 Z8 F1000
N1580 Z2
N1590 Z-0.8 F333.3
N1600 G18 G2 X-13.7 Z-1 I0.2 K0 F1000
N1610 G1 X-13.5
N1620 G17 G3 X-13.3 Y-1.75 I0 J0.2
N1630 G1 Y6.3
N1640 X-25
N1650 Y-7.6
N1660 X-13.3
N1670 Y-1.75
N1680 G3 X-13.5 Y-1.55 I-0.2 J0
N1690 G1 X-13.7
N1700 G18 G3 X-13.9 Z-0.8 I0 K0.2
N1710 G1 Z3
N1720 Y-1.95
N1730 Z2
N1740 Z1 F333.3
N1750 Z-1.8
N1760 G2 X-13.7 Z-2 I0.2 K0 F1000
N1770 G1 X-13.5
N1780 G17 G3 X-13.3 Y-1.75 I0 J0.2
N1790 G1 Y6.3
N1800 X-25
N1810 Y-7.6
N1820 X-13.3
N1830 Y-1.75
N1840 G3 X-13.5 Y-1.55 I-0.2 J0
N1850 G1 X-13.7
N1860 G18 G3 X-13.9 Z-1.8 I0 K0.2
N1870 G1 Z3
N1880 Y-1.95
N1890 Z2
N1900 Z0 F333.3
N1910 Z-2.8
N1920 G2 X-13.7 Z-3 I0.2 K0 F1000
N1930 G1 X-13.5
N1940 G17 G3 X-13.3 Y-1.75 I0 J0.2
N1950 G1 Y6.3
N1960 X-25
N1970 Y-7.6
N1980 X-13.3
N1990 Y-1.75
N2000 G3 X-13.5 Y-1.55 I-0.2 J0
N2010 G1 X-13.7
N2020 G18 G3 X-13.9 Z-2.8 I0 K0.2
N2030 G1 Z3
N2040 X15.387 Y9.228
N2050 Z2
N2060 Z-0.8 F333.3
N2070 G2 X15.587 Z-1 I0.2 K0 F1000
N2080 G1 X15.787
N2090 G17 G3 X15.987 Y9.428 I0 J0.2
N2100 G1 Y11.328
N2110 X7.087
N2120 Y7.528
N2130 X15.987
N2140 Y9.428
N2150 G3 X15.787 Y9.628 I-0.2 J0
N2160 G1 X15.587
N2170 G18 G3 X15.387 Z-0.8 I0 K0.2
N2180 G1 Z3
N2190 Y9.228
N2200 Z2
N2210 Z1 F333.3
N2220 Z-1.8
N2230 G2 X15.587 Z-2 I0.2 K0 F1000
N2240 G1 X15.787
N2250 G17 G3 X15.987 Y9.428 I0 J0.2
N2260 G1 Y11.328
N2270 X7.087
N2280 Y7.528
N2290 X15.987
N2300 Y9.428
N2310 G3 X15.787 Y9.628 I-0.2 J0
N2320 G1 X15.587
N2330 G18 G3 X15.387 Z-1.8 I0 K0.2
N2340 G1 Z3
N2350 Y9.228
N2360 Z2
N2370 Z0 F333.3
N2380 Z-2.8
N2390 G2 X15.587 Z-3 I0.2 K0 F1000
N2400 G1 X15.787
N2410 G17 G3 X15.987 Y9.428 I0 J0.2
N2420 G1 Y11.328
N2430 X7.087
N2440 Y7.528
N2450 X15.987
N2460 Y9.428
N2470 G3 X15.787 Y9.628 I-0.2 J0
N2480 G1 X15.587
N2490 G18 G3 X15.387 Z-2.8 I0 K0.2
N2500 G1 Z8
(When using Fusion for Personal Use, the feedrate of rapid)
(moves is reduced to match the feedrate of cutting moves,)
(which can increase machining time. Unrestricted rapid moves)
(are available with a Fusion Subscription.)

(2D 3)
N2510 G17
N2520 G0 X3.7 Y0.15
N2530 G1 Z8 F1000
N2540 Z2
N2550 Z-0.8 F333.3
N2560 G18 G2 X3.9 Z-1 I0.2 K0 F1000
N2570 G1 X4.1
N2580 G17 G3 X4.3 Y0.35 I0 J0.2
N2590 G1 Y6.025
N2600 X-10.1
N2610 Y-5.325
N2620 X4.3
N2630 Y0.35
N2640 G3 X4.1 Y0.55 I-0.2 J0
N2650 G1 X3.9
N2660 G18 G3 X3.7 Z-0.8 I0 K0.2
N2670 G1 Z3
N2680 Y0.15
N2690 Z2
N2700 Z1 F333.3
N2710 Z-1.8
N2720 G2 X3.9 Z-2 I0.2 K0 F1000
N2730 G1 X4.1
N2740 G17 G3 X4.3 Y0.35 I0 J0.2
N2750 G1 Y6.025
N2760 X-10.1
N2770 Y-5.325
N2780 X4.3
N2790 Y0.35
N2800 G3 X4.1 Y0.55 I-0.2 J0
N2810 G1 X3.9
N2820 G18 G3 X3.7 Z-1.8 I0 K0.2
N2830 G1 Z3
N2840 Y0.15
N2850 Z2
N2860 Z0 F333.3
N2870 Z-2.8
N2880 G2 X3.9 Z-3 I0.2 K0 F1000
N2890 G1 X4.1
N2900 G17 G3 X4.3 Y0.35 I0 J0.2
N2910 G1 Y6.025
N2920 X-10.1
N2930 Y-5.325
N2940 X4.3
N2950 Y0.35
N2960 G3 X4.1 Y0.55 I-0.2 J0
N2970 G1 X3.9
N2980 G18 G3 X3.7 Z-2.8 I0 K0.2
N2990 G1 Z8
N3000 M9
N3010 M30
%
