%
(OnStepBOX Surface G code)
(T2 D=2 CR=0 - ZMIN=-5 - flat end mill)
N10 G90 G94
N20 G17
N30 G21
(-Attention- Property Safe Retracts is set to Clearance Height.)
(Ensure the clearance height will clear the part and or fixtures.)
(Raise the Z-axis to a safe height before starting the program.)
(When using Fusion for Personal Use, the feedrate of rapid)
(moves is reduced to match the feedrate of cutting moves,)
(which can increase machining time. Unrestricted rapid moves)
(are available with a Fusion Subscription.)

(2D 1)
N40 T2 M6
N50 S5000 M3
N60 G17 G90 G94
N70 G54
N80 M8
N90 G0 G43 Z8
N100 G0 X47.254 Y-7.616
N110 Z8
N120 G1 Z2 F500
N130 Z1.5 F333.3
N140 Z-0.3
N150 G18 G2 X47.453 Z-0.5 I0.2 K0 F500
N160 G1 X47.653
N170 G17 G3 X47.854 Y-7.416 I0 J0.2
N180 G1 Y15.994
N190 X30.854
N200 Y-15.916
N210 X47.854
N220 Y-7.416
N230 G3 X47.653 Y-7.216 I-0.2 J0
N240 G1 X47.453
N250 G18 G3 X47.254 Z-0.3 I0 K0.2
N260 G1 Z3
N270 Y-7.616
N280 Z2
N290 Z1 F333.3
N300 Z-0.8
N310 G2 X47.453 Z-1 I0.2 K0 F500
N320 G1 X47.653
N330 G17 G3 X47.854 Y-7.416 I0 J0.2
N340 G1 Y15.994
N350 X30.854
N360 Y-15.916
N370 X47.854
N380 Y-7.416
N390 G3 X47.653 Y-7.216 I-0.2 J0
N400 G1 X47.453
N410 G18 G3 X47.254 Z-0.8 I0 K0.2
N420 G1 Z3
N430 Y-7.616
N440 Z2
N450 Z0.5 F333.3
N460 Z-1.3
N470 G2 X47.453 Z-1.5 I0.2 K0 F500
N480 G1 X47.653
N490 G17 G3 X47.854 Y-7.416 I0 J0.2
N500 G1 Y15.994
N510 X30.854
N520 Y-15.916
N530 X47.854
N540 Y-7.416
N550 G3 X47.653 Y-7.216 I-0.2 J0
N560 G1 X47.453
N570 G18 G3 X47.254 Z-1.3 I0 K0.2
N580 G1 Z3
N590 Y-7.616
N600 Z2
N610 Z0 F333.3
N620 Z-1.8
N630 G2 X47.453 Z-2 I0.2 K0 F500
N640 G1 X47.653
N650 G17 G3 X47.854 Y-7.416 I0 J0.2
N660 G1 Y15.994
N670 X30.854
N680 Y-15.916
N690 X47.854
N700 Y-7.416
N710 G3 X47.653 Y-7.216 I-0.2 J0
N720 G1 X47.453
N730 G18 G3 X47.254 Z-1.8 I0 K0.2
N740 G1 Z3
N750 Y-7.616
N760 Z2
N770 Z-0.5 F333.3
N780 Z-2.3
N790 G2 X47.453 Z-2.5 I0.2 K0 F500
N800 G1 X47.653
N810 G17 G3 X47.854 Y-7.416 I0 J0.2
N820 G1 Y15.994
N830 X30.854
N840 Y-15.916
N850 X47.854
N860 Y-7.416
N870 G3 X47.653 Y-7.216 I-0.2 J0
N880 G1 X47.453
N890 G18 G3 X47.254 Z-2.3 I0 K0.2
N900 G1 Z3
N910 Y-7.616
N920 Z2
N930 Z-1 F333.3
N940 Z-2.8
N950 G2 X47.453 Z-3 I0.2 K0 F500
N960 G1 X47.653
N970 G17 G3 X47.854 Y-7.416 I0 J0.2
N980 G1 Y15.994
N990 X30.854
N1000 Y-15.916
N1010 X47.854
N1020 Y-7.416
N1030 G3 X47.653 Y-7.216 I-0.2 J0
N1040 G1 X47.453
N1050 G18 G3 X47.254 Z-2.8 I0 K0.2
N1060 G1 Z3
N1070 Y-7.616
N1080 Z2
N1090 Z-1.5 F333.3
N1100 Z-3.3
N1110 G2 X47.453 Z-3.5 I0.2 K0 F500
N1120 G1 X47.653
N1130 G17 G3 X47.854 Y-7.416 I0 J0.2
N1140 G1 Y15.994
N1150 X30.854
N1160 Y-15.916
N1170 X47.854
N1180 Y-7.416
N1190 G3 X47.653 Y-7.216 I-0.2 J0
N1200 G1 X47.453
N1210 G18 G3 X47.254 Z-3.3 I0 K0.2
N1220 G1 Z3
N1230 Y-7.616
N1240 Z2
N1250 Z-2 F333.3
N1260 Z-3.8
N1270 G2 X47.453 Z-4 I0.2 K0 F500
N1280 G1 X47.653
N1290 G17 G3 X47.854 Y-7.416 I0 J0.2
N1300 G1 Y15.994
N1310 X30.854
N1320 Y-15.916
N1330 X47.854
N1340 Y-7.416
N1350 G3 X47.653 Y-7.216 I-0.2 J0
N1360 G1 X47.453
N1370 G18 G3 X47.254 Z-3.8 I0 K0.2
N1380 G1 Z3
N1390 Y-7.616
N1400 Z2
N1410 Z-2.5 F333.3
N1420 Z-4.3
N1430 G2 X47.453 Z-4.5 I0.2 K0 F500
N1440 G1 X47.653
N1450 G17 G3 X47.854 Y-7.416 I0 J0.2
N1460 G1 Y15.994
N1470 X30.854
N1480 Y-15.916
N1490 X47.854
N1500 Y-7.416
N1510 G3 X47.653 Y-7.216 I-0.2 J0
N1520 G1 X47.453
N1530 G18 G3 X47.254 Z-4.3 I0 K0.2
N1540 G1 Z3
N1550 Y-7.616
N1560 Z2
N1570 Z-3 F333.3
N1580 Z-4.8
N1590 G2 X47.453 Z-5 I0.2 K0 F500
N1600 G1 X47.653
N1610 G17 G3 X47.854 Y-7.416 I0 J0.2
N1620 G1 Y15.994
N1630 X30.854
N1640 Y-15.916
N1650 X47.854
N1660 Y-7.416
N1670 G3 X47.653 Y-7.216 I-0.2 J0
N1680 G1 X47.453
N1690 G18 G3 X47.254 Z-4.8 I0 K0.2
N1700 G1 Z3
N1710 X17.9 Y-22.2
N1720 Z2
N1730 Z1.5 F333.3
N1740 Z-0.3
N1750 G2 X18.1 Z-0.5 I0.2 K0 F500
N1760 G1 X18.3
N1770 G17 G3 X18.5 Y-22 I0 J0.2
N1780 G1 Y-20.5
N1790 X15.5
N1800 Y-23.5
N1810 X18.5
N1820 Y-22
N1830 G3 X18.3 Y-21.8 I-0.2 J0
N1840 G1 X18.1
N1850 G18 G3 X17.9 Z-0.3 I0 K0.2
N1860 G1 Z3
N1870 Y-22.2
N1880 Z2
N1890 Z1 F333.3
N1900 Z-0.8
N1910 G2 X18.1 Z-1 I0.2 K0 F500
N1920 G1 X18.3
N1930 G17 G3 X18.5 Y-22 I0 J0.2
N1940 G1 Y-20.5
N1950 X15.5
N1960 Y-23.5
N1970 X18.5
N1980 Y-22
N1990 G3 X18.3 Y-21.8 I-0.2 J0
N2000 G1 X18.1
N2010 G18 G3 X17.9 Z-0.8 I0 K0.2
N2020 G1 Z3
N2030 Y-22.2
N2040 Z2
N2050 Z0.5 F333.3
N2060 Z-1.3
N2070 G2 X18.1 Z-1.5 I0.2 K0 F500
N2080 G1 X18.3
N2090 G17 G3 X18.5 Y-22 I0 J0.2
N2100 G1 Y-20.5
N2110 X15.5
N2120 Y-23.5
N2130 X18.5
N2140 Y-22
N2150 G3 X18.3 Y-21.8 I-0.2 J0
N2160 G1 X18.1
N2170 G18 G3 X17.9 Z-1.3 I0 K0.2
N2180 G1 Z3
N2190 Y-22.2
N2200 Z2
N2210 Z0 F333.3
N2220 Z-1.8
N2230 G2 X18.1 Z-2 I0.2 K0 F500
N2240 G1 X18.3
N2250 G17 G3 X18.5 Y-22 I0 J0.2
N2260 G1 Y-20.5
N2270 X15.5
N2280 Y-23.5
N2290 X18.5
N2300 Y-22
N2310 G3 X18.3 Y-21.8 I-0.2 J0
N2320 G1 X18.1
N2330 G18 G3 X17.9 Z-1.8 I0 K0.2
N2340 G1 Z3
N2350 Y-22.2
N2360 Z2
N2370 Z-0.5 F333.3
N2380 Z-2.3
N2390 G2 X18.1 Z-2.5 I0.2 K0 F500
N2400 G1 X18.3
N2410 G17 G3 X18.5 Y-22 I0 J0.2
N2420 G1 Y-20.5
N2430 X15.5
N2440 Y-23.5
N2450 X18.5
N2460 Y-22
N2470 G3 X18.3 Y-21.8 I-0.2 J0
N2480 G1 X18.1
N2490 G18 G3 X17.9 Z-2.3 I0 K0.2
N2500 G1 Z3
N2510 Y-22.2
N2520 Z2
N2530 Z-1 F333.3
N2540 Z-2.8
N2550 G2 X18.1 Z-3 I0.2 K0 F500
N2560 G1 X18.3
N2570 G17 G3 X18.5 Y-22 I0 J0.2
N2580 G1 Y-20.5
N2590 X15.5
N2600 Y-23.5
N2610 X18.5
N2620 Y-22
N2630 G3 X18.3 Y-21.8 I-0.2 J0
N2640 G1 X18.1
N2650 G18 G3 X17.9 Z-2.8 I0 K0.2
N2660 G1 Z3
N2670 Y-22.2
N2680 Z2
N2690 Z-1.5 F333.3
N2700 Z-3.3
N2710 G2 X18.1 Z-3.5 I0.2 K0 F500
N2720 G1 X18.3
N2730 G17 G3 X18.5 Y-22 I0 J0.2
N2740 G1 Y-20.5
N2750 X15.5
N2760 Y-23.5
N2770 X18.5
N2780 Y-22
N2790 G3 X18.3 Y-21.8 I-0.2 J0
N2800 G1 X18.1
N2810 G18 G3 X17.9 Z-3.3 I0 K0.2
N2820 G1 Z3
N2830 Y-22.2
N2840 Z2
N2850 Z-2 F333.3
N2860 Z-3.8
N2870 G2 X18.1 Z-4 I0.2 K0 F500
N2880 G1 X18.3
N2890 G17 G3 X18.5 Y-22 I0 J0.2
N2900 G1 Y-20.5
N2910 X15.5
N2920 Y-23.5
N2930 X18.5
N2940 Y-22
N2950 G3 X18.3 Y-21.8 I-0.2 J0
N2960 G1 X18.1
N2970 G18 G3 X17.9 Z-3.8 I0 K0.2
N2980 G1 Z3
N2990 Y-22.2
N3000 Z2
N3010 Z-2.5 F333.3
N3020 Z-4.3
N3030 G2 X18.1 Z-4.5 I0.2 K0 F500
N3040 G1 X18.3
N3050 G17 G3 X18.5 Y-22 I0 J0.2
N3060 G1 Y-20.5
N3070 X15.5
N3080 Y-23.5
N3090 X18.5
N3100 Y-22
N3110 G3 X18.3 Y-21.8 I-0.2 J0
N3120 G1 X18.1
N3130 G18 G3 X17.9 Z-4.3 I0 K0.2
N3140 G1 Z3
N3150 Y-22.2
N3160 Z2
N3170 Z-3 F333.3
N3180 Z-4.8
N3190 G2 X18.1 Z-5 I0.2 K0 F500
N3200 G1 X18.3
N3210 G17 G3 X18.5 Y-22 I0 J0.2
N3220 G1 Y-20.5
N3230 X15.5
N3240 Y-23.5
N3250 X18.5
N3260 Y-22
N3270 G3 X18.3 Y-21.8 I-0.2 J0
N3280 G1 X18.1
N3290 G18 G3 X17.9 Z-4.8 I0 K0.2
N3300 G1 Z3
N3310 Y21.8
N3320 Z2
N3330 Z1.5 F333.3
N3340 Z-0.3
N3350 G2 X18.1 Z-0.5 I0.2 K0 F500
N3360 G1 X18.3
N3370 G17 G3 X18.5 Y22 I0 J0.2
N3380 G1 Y23.5
N3390 X15.5
N3400 Y20.5
N3410 X18.5
N3420 Y22
N3430 G3 X18.3 Y22.2 I-0.2 J0
N3440 G1 X18.1
N3450 G18 G3 X17.9 Z-0.3 I0 K0.2
N3460 G1 Z3
N3470 Y21.8
N3480 Z2
N3490 Z1 F333.3
N3500 Z-0.8
N3510 G2 X18.1 Z-1 I0.2 K0 F500
N3520 G1 X18.3
N3530 G17 G3 X18.5 Y22 I0 J0.2
N3540 G1 Y23.5
N3550 X15.5
N3560 Y20.5
N3570 X18.5
N3580 Y22
N3590 G3 X18.3 Y22.2 I-0.2 J0
N3600 G1 X18.1
N3610 G18 G3 X17.9 Z-0.8 I0 K0.2
N3620 G1 Z3
N3630 Y21.8
N3640 Z2
N3650 Z0.5 F333.3
N3660 Z-1.3
N3670 G2 X18.1 Z-1.5 I0.2 K0 F500
N3680 G1 X18.3
N3690 G17 G3 X18.5 Y22 I0 J0.2
N3700 G1 Y23.5
N3710 X15.5
N3720 Y20.5
N3730 X18.5
N3740 Y22
N3750 G3 X18.3 Y22.2 I-0.2 J0
N3760 G1 X18.1
N3770 G18 G3 X17.9 Z-1.3 I0 K0.2
N3780 G1 Z3
N3790 Y21.8
N3800 Z2
N3810 Z0 F333.3
N3820 Z-1.8
N3830 G2 X18.1 Z-2 I0.2 K0 F500
N3840 G1 X18.3
N3850 G17 G3 X18.5 Y22 I0 J0.2
N3860 G1 Y23.5
N3870 X15.5
N3880 Y20.5
N3890 X18.5
N3900 Y22
N3910 G3 X18.3 Y22.2 I-0.2 J0
N3920 G1 X18.1
N3930 G18 G3 X17.9 Z-1.8 I0 K0.2
N3940 G1 Z3
N3950 Y21.8
N3960 Z2
N3970 Z-0.5 F333.3
N3980 Z-2.3
N3990 G2 X18.1 Z-2.5 I0.2 K0 F500
N4000 G1 X18.3
N4010 G17 G3 X18.5 Y22 I0 J0.2
N4020 G1 Y23.5
N4030 X15.5
N4040 Y20.5
N4050 X18.5
N4060 Y22
N4070 G3 X18.3 Y22.2 I-0.2 J0
N4080 G1 X18.1
N4090 G18 G3 X17.9 Z-2.3 I0 K0.2
N4100 G1 Z3
N4110 Y21.8
N4120 Z2
N4130 Z-1 F333.3
N4140 Z-2.8
N4150 G2 X18.1 Z-3 I0.2 K0 F500
N4160 G1 X18.3
N4170 G17 G3 X18.5 Y22 I0 J0.2
N4180 G1 Y23.5
N4190 X15.5
N4200 Y20.5
N4210 X18.5
N4220 Y22
N4230 G3 X18.3 Y22.2 I-0.2 J0
N4240 G1 X18.1
N4250 G18 G3 X17.9 Z-2.8 I0 K0.2
N4260 G1 Z3
N4270 Y21.8
N4280 Z2
N4290 Z-1.5 F333.3
N4300 Z-3.3
N4310 G2 X18.1 Z-3.5 I0.2 K0 F500
N4320 G1 X18.3
N4330 G17 G3 X18.5 Y22 I0 J0.2
N4340 G1 Y23.5
N4350 X15.5
N4360 Y20.5
N4370 X18.5
N4380 Y22
N4390 G3 X18.3 Y22.2 I-0.2 J0
N4400 G1 X18.1
N4410 G18 G3 X17.9 Z-3.3 I0 K0.2
N4420 G1 Z3
N4430 Y21.8
N4440 Z2
N4450 Z-2 F333.3
N4460 Z-3.8
N4470 G2 X18.1 Z-4 I0.2 K0 F500
N4480 G1 X18.3
N4490 G17 G3 X18.5 Y22 I0 J0.2
N4500 G1 Y23.5
N4510 X15.5
N4520 Y20.5
N4530 X18.5
N4540 Y22
N4550 G3 X18.3 Y22.2 I-0.2 J0
N4560 G1 X18.1
N4570 G18 G3 X17.9 Z-3.8 I0 K0.2
N4580 G1 Z3
N4590 Y21.8
N4600 Z2
N4610 Z-2.5 F333.3
N4620 Z-4.3
N4630 G2 X18.1 Z-4.5 I0.2 K0 F500
N4640 G1 X18.3
N4650 G17 G3 X18.5 Y22 I0 J0.2
N4660 G1 Y23.5
N4670 X15.5
N4680 Y20.5
N4690 X18.5
N4700 Y22
N4710 G3 X18.3 Y22.2 I-0.2 J0
N4720 G1 X18.1
N4730 G18 G3 X17.9 Z-4.3 I0 K0.2
N4740 G1 Z3
N4750 Y21.8
N4760 Z2
N4770 Z-3 F333.3
N4780 Z-4.8
N4790 G2 X18.1 Z-5 I0.2 K0 F500
N4800 G1 X18.3
N4810 G17 G3 X18.5 Y22 I0 J0.2
N4820 G1 Y23.5
N4830 X15.5
N4840 Y20.5
N4850 X18.5
N4860 Y22
N4870 G3 X18.3 Y22.2 I-0.2 J0
N4880 G1 X18.1
N4890 G18 G3 X17.9 Z-4.8 I0 K0.2
N4900 G1 Z8
(When using Fusion for Personal Use, the feedrate of rapid)
(moves is reduced to match the feedrate of cutting moves,)
(which can increase machining time. Unrestricted rapid moves)
(are available with a Fusion Subscription.)

(1)
N4910 G17
N4920 G0 X4.996 Y-17.2
N4930 G1 Z8 F500
N4940 Z1.5
N4950 Z-0.3
N4960 G18 G2 X5.196 Z-0.5 I0.2 K0
N4970 G1 X5.296
N4980 G17 G3 X5.496 Y-17 I0 J0.2
N4990 X-5.504 I-5.5 J0
N5000 X5.496 I5.5 J0
N5010 X5.296 Y-16.8 I-0.2 J0
N5020 G1 X5.196
N5030 G18 G3 X4.996 Z-0.3 I0 K0.2
N5040 G1 Z3
N5050 Y-17.2
N5060 Z1
N5070 Z-0.8
N5080 G2 X5.196 Z-1 I0.2 K0
N5090 G1 X5.296
N5100 G17 G3 X5.496 Y-17 I0 J0.2
N5110 X-5.504 I-5.5 J0
N5120 X5.496 I5.5 J0
N5130 X5.296 Y-16.8 I-0.2 J0
N5140 G1 X5.196
N5150 G18 G3 X4.996 Z-0.8 I0 K0.2
N5160 G1 Z3
N5170 Y-17.2
N5180 Z0.5
N5190 Z-1.3
N5200 G2 X5.196 Z-1.5 I0.2 K0
N5210 G1 X5.296
N5220 G17 G3 X5.496 Y-17 I0 J0.2
N5230 X-5.504 I-5.5 J0
N5240 X5.496 I5.5 J0
N5250 X5.296 Y-16.8 I-0.2 J0
N5260 G1 X5.196
N5270 G18 G3 X4.996 Z-1.3 I0 K0.2
N5280 G1 Z3
N5290 Y-17.2
N5300 Z0
N5310 Z-1.8
N5320 G2 X5.196 Z-2 I0.2 K0
N5330 G1 X5.296
N5340 G17 G3 X5.496 Y-17 I0 J0.2
N5350 X-5.504 I-5.5 J0
N5360 X5.496 I5.5 J0
N5370 X5.296 Y-16.8 I-0.2 J0
N5380 G1 X5.196
N5390 G18 G3 X4.996 Z-1.8 I0 K0.2
N5400 G1 Z3
N5410 Y-17.2
N5420 Z-0.5
N5430 Z-2.3
N5440 G2 X5.196 Z-2.5 I0.2 K0
N5450 G1 X5.296
N5460 G17 G3 X5.496 Y-17 I0 J0.2
N5470 X-5.504 I-5.5 J0
N5480 X5.496 I5.5 J0
N5490 X5.296 Y-16.8 I-0.2 J0
N5500 G1 X5.196
N5510 G18 G3 X4.996 Z-2.3 I0 K0.2
N5520 G1 Z3
N5530 Y-17.2
N5540 Z-1
N5550 Z-2.8
N5560 G2 X5.196 Z-3 I0.2 K0
N5570 G1 X5.296
N5580 G17 G3 X5.496 Y-17 I0 J0.2
N5590 X-5.504 I-5.5 J0
N5600 X5.496 I5.5 J0
N5610 X5.296 Y-16.8 I-0.2 J0
N5620 G1 X5.196
N5630 G18 G3 X4.996 Z-2.8 I0 K0.2
N5640 G1 Z3
N5650 Y-17.2
N5660 Z-1.5
N5670 Z-3.3
N5680 G2 X5.196 Z-3.5 I0.2 K0
N5690 G1 X5.296
N5700 G17 G3 X5.496 Y-17 I0 J0.2
N5710 X-5.504 I-5.5 J0
N5720 X5.496 I5.5 J0
N5730 X5.296 Y-16.8 I-0.2 J0
N5740 G1 X5.196
N5750 G18 G3 X4.996 Z-3.3 I0 K0.2
N5760 G1 Z3
N5770 Y-17.2
N5780 Z-2
N5790 Z-3.8
N5800 G2 X5.196 Z-4 I0.2 K0
N5810 G1 X5.296
N5820 G17 G3 X5.496 Y-17 I0 J0.2
N5830 X-5.504 I-5.5 J0
N5840 X5.496 I5.5 J0
N5850 X5.296 Y-16.8 I-0.2 J0
N5860 G1 X5.196
N5870 G18 G3 X4.996 Z-3.8 I0 K0.2
N5880 G1 Z3
N5890 Y-17.2
N5900 Z-2.5
N5910 Z-4.3
N5920 G2 X5.196 Z-4.5 I0.2 K0
N5930 G1 X5.296
N5940 G17 G3 X5.496 Y-17 I0 J0.2
N5950 X-5.504 I-5.5 J0
N5960 X5.496 I5.5 J0
N5970 X5.296 Y-16.8 I-0.2 J0
N5980 G1 X5.196
N5990 G18 G3 X4.996 Z-4.3 I0 K0.2
N6000 G1 Z3
N6010 Y-17.2
N6020 Z-3
N6030 Z-4.8
N6040 G2 X5.196 Z-5 I0.2 K0
N6050 G1 X5.296
N6060 G17 G3 X5.496 Y-17 I0 J0.2
N6070 X-5.504 I-5.5 J0
N6080 X5.496 I5.5 J0
N6090 X5.296 Y-16.8 I-0.2 J0
N6100 G1 X5.196
N6110 G18 G3 X4.996 Z-4.8 I0 K0.2
N6120 G1 Z3
N6130 X-29.992 Y-13.2
N6140 Z1.5
N6150 Z-0.3
N6160 G2 X-29.792 Z-0.5 I0.2 K0
N6170 G1 X-29.692
N6180 G17 G3 X-29.492 Y-13 I0 J0.2
N6190 X-30.492 I-0.5 J0
N6200 X-29.492 I0.5 J0
N6210 X-29.692 Y-12.8 I-0.2 J0
N6220 G1 X-29.792
N6230 G18 G3 X-29.992 Z-0.3 I0 K0.2
N6240 G1 Z3
N6250 Y-13.2
N6260 Z1
N6270 Z-0.8
N6280 G2 X-29.792 Z-1 I0.2 K0
N6290 G1 X-29.692
N6300 G17 G3 X-29.492 Y-13 I0 J0.2
N6310 X-30.492 I-0.5 J0
N6320 X-29.492 I0.5 J0
N6330 X-29.692 Y-12.8 I-0.2 J0
N6340 G1 X-29.792
N6350 G18 G3 X-29.992 Z-0.8 I0 K0.2
N6360 G1 Z3
N6370 Y-13.2
N6380 Z0.5
N6390 Z-1.3
N6400 G2 X-29.792 Z-1.5 I0.2 K0
N6410 G1 X-29.692
N6420 G17 G3 X-29.492 Y-13 I0 J0.2
N6430 X-30.492 I-0.5 J0
N6440 X-29.492 I0.5 J0
N6450 X-29.692 Y-12.8 I-0.2 J0
N6460 G1 X-29.792
N6470 G18 G3 X-29.992 Z-1.3 I0 K0.2
N6480 G1 Z3
N6490 Y-13.2
N6500 Z0
N6510 Z-1.8
N6520 G2 X-29.792 Z-2 I0.2 K0
N6530 G1 X-29.692
N6540 G17 G3 X-29.492 Y-13 I0 J0.2
N6550 X-30.492 I-0.5 J0
N6560 X-29.492 I0.5 J0
N6570 X-29.692 Y-12.8 I-0.2 J0
N6580 G1 X-29.792
N6590 G18 G3 X-29.992 Z-1.8 I0 K0.2
N6600 G1 Z3
N6610 Y-13.2
N6620 Z-0.5
N6630 Z-2.3
N6640 G2 X-29.792 Z-2.5 I0.2 K0
N6650 G1 X-29.692
N6660 G17 G3 X-29.492 Y-13 I0 J0.2
N6670 X-30.492 I-0.5 J0
N6680 X-29.492 I0.5 J0
N6690 X-29.692 Y-12.8 I-0.2 J0
N6700 G1 X-29.792
N6710 G18 G3 X-29.992 Z-2.3 I0 K0.2
N6720 G1 Z3
N6730 Y-13.2
N6740 Z-1
N6750 Z-2.8
N6760 G2 X-29.792 Z-3 I0.2 K0
N6770 G1 X-29.692
N6780 G17 G3 X-29.492 Y-13 I0 J0.2
N6790 X-30.492 I-0.5 J0
N6800 X-29.492 I0.5 J0
N6810 X-29.692 Y-12.8 I-0.2 J0
N6820 G1 X-29.792
N6830 G18 G3 X-29.992 Z-2.8 I0 K0.2
N6840 G1 Z3
N6850 Y-13.2
N6860 Z-1.5
N6870 Z-3.3
N6880 G2 X-29.792 Z-3.5 I0.2 K0
N6890 G1 X-29.692
N6900 G17 G3 X-29.492 Y-13 I0 J0.2
N6910 X-30.492 I-0.5 J0
N6920 X-29.492 I0.5 J0
N6930 X-29.692 Y-12.8 I-0.2 J0
N6940 G1 X-29.792
N6950 G18 G3 X-29.992 Z-3.3 I0 K0.2
N6960 G1 Z3
N6970 Y-13.2
N6980 Z-2
N6990 Z-3.8
N7000 G2 X-29.792 Z-4 I0.2 K0
N7010 G1 X-29.692
N7020 G17 G3 X-29.492 Y-13 I0 J0.2
N7030 X-30.492 I-0.5 J0
N7040 X-29.492 I0.5 J0
N7050 X-29.692 Y-12.8 I-0.2 J0
N7060 G1 X-29.792
N7070 G18 G3 X-29.992 Z-3.8 I0 K0.2
N7080 G1 Z3
N7090 Y-13.2
N7100 Z-2.5
N7110 Z-4.3
N7120 G2 X-29.792 Z-4.5 I0.2 K0
N7130 G1 X-29.692
N7140 G17 G3 X-29.492 Y-13 I0 J0.2
N7150 X-30.492 I-0.5 J0
N7160 X-29.492 I0.5 J0
N7170 X-29.692 Y-12.8 I-0.2 J0
N7180 G1 X-29.792
N7190 G18 G3 X-29.992 Z-4.3 I0 K0.2
N7200 G1 Z3
N7210 Y-13.2
N7220 Z-3
N7230 Z-4.8
N7240 G2 X-29.792 Z-5 I0.2 K0
N7250 G1 X-29.692
N7260 G17 G3 X-29.492 Y-13 I0 J0.2
N7270 X-30.492 I-0.5 J0
N7280 X-29.492 I0.5 J0
N7290 X-29.692 Y-12.8 I-0.2 J0
N7300 G1 X-29.792
N7310 G18 G3 X-29.992 Z-4.8 I0 K0.2
N7320 G1 Z3
N7330 Y11.8
N7340 Z1.5
N7350 Z-0.3
N7360 G2 X-29.792 Z-0.5 I0.2 K0
N7370 G1 X-29.692
N7380 G17 G3 X-29.492 Y12 I0 J0.2
N7390 X-30.492 I-0.5 J0
N7400 X-29.492 I0.5 J0
N7410 X-29.692 Y12.2 I-0.2 J0
N7420 G1 X-29.792
N7430 G18 G3 X-29.992 Z-0.3 I0 K0.2
N7440 G1 Z3
N7450 Y11.8
N7460 Z1
N7470 Z-0.8
N7480 G2 X-29.792 Z-1 I0.2 K0
N7490 G1 X-29.692
N7500 G17 G3 X-29.492 Y12 I0 J0.2
N7510 X-30.492 I-0.5 J0
N7520 X-29.492 I0.5 J0
N7530 X-29.692 Y12.2 I-0.2 J0
N7540 G1 X-29.792
N7550 G18 G3 X-29.992 Z-0.8 I0 K0.2
N7560 G1 Z3
N7570 Y11.8
N7580 Z0.5
N7590 Z-1.3
N7600 G2 X-29.792 Z-1.5 I0.2 K0
N7610 G1 X-29.692
N7620 G17 G3 X-29.492 Y12 I0 J0.2
N7630 X-30.492 I-0.5 J0
N7640 X-29.492 I0.5 J0
N7650 X-29.692 Y12.2 I-0.2 J0
N7660 G1 X-29.792
N7670 G18 G3 X-29.992 Z-1.3 I0 K0.2
N7680 G1 Z3
N7690 Y11.8
N7700 Z0
N7710 Z-1.8
N7720 G2 X-29.792 Z-2 I0.2 K0
N7730 G1 X-29.692
N7740 G17 G3 X-29.492 Y12 I0 J0.2
N7750 X-30.492 I-0.5 J0
N7760 X-29.492 I0.5 J0
N7770 X-29.692 Y12.2 I-0.2 J0
N7780 G1 X-29.792
N7790 G18 G3 X-29.992 Z-1.8 I0 K0.2
N7800 G1 Z3
N7810 Y11.8
N7820 Z-0.5
N7830 Z-2.3
N7840 G2 X-29.792 Z-2.5 I0.2 K0
N7850 G1 X-29.692
N7860 G17 G3 X-29.492 Y12 I0 J0.2
N7870 X-30.492 I-0.5 J0
N7880 X-29.492 I0.5 J0
N7890 X-29.692 Y12.2 I-0.2 J0
N7900 G1 X-29.792
N7910 G18 G3 X-29.992 Z-2.3 I0 K0.2
N7920 G1 Z3
N7930 Y11.8
N7940 Z-1
N7950 Z-2.8
N7960 G2 X-29.792 Z-3 I0.2 K0
N7970 G1 X-29.692
N7980 G17 G3 X-29.492 Y12 I0 J0.2
N7990 X-30.492 I-0.5 J0
N8000 X-29.492 I0.5 J0
N8010 X-29.692 Y12.2 I-0.2 J0
N8020 G1 X-29.792
N8030 G18 G3 X-29.992 Z-2.8 I0 K0.2
N8040 G1 Z3
N8050 Y11.8
N8060 Z-1.5
N8070 Z-3.3
N8080 G2 X-29.792 Z-3.5 I0.2 K0
N8090 G1 X-29.692
N8100 G17 G3 X-29.492 Y12 I0 J0.2
N8110 X-30.492 I-0.5 J0
N8120 X-29.492 I0.5 J0
N8130 X-29.692 Y12.2 I-0.2 J0
N8140 G1 X-29.792
N8150 G18 G3 X-29.992 Z-3.3 I0 K0.2
N8160 G1 Z3
N8170 Y11.8
N8180 Z-2
N8190 Z-3.8
N8200 G2 X-29.792 Z-4 I0.2 K0
N8210 G1 X-29.692
N8220 G17 G3 X-29.492 Y12 I0 J0.2
N8230 X-30.492 I-0.5 J0
N8240 X-29.492 I0.5 J0
N8250 X-29.692 Y12.2 I-0.2 J0
N8260 G1 X-29.792
N8270 G18 G3 X-29.992 Z-3.8 I0 K0.2
N8280 G1 Z3
N8290 Y11.8
N8300 Z-2.5
N8310 Z-4.3
N8320 G2 X-29.792 Z-4.5 I0.2 K0
N8330 G1 X-29.692
N8340 G17 G3 X-29.492 Y12 I0 J0.2
N8350 X-30.492 I-0.5 J0
N8360 X-29.492 I0.5 J0
N8370 X-29.692 Y12.2 I-0.2 J0
N8380 G1 X-29.792
N8390 G18 G3 X-29.992 Z-4.3 I0 K0.2
N8400 G1 Z3
N8410 Y11.8
N8420 Z-3
N8430 Z-4.8
N8440 G2 X-29.792 Z-5 I0.2 K0
N8450 G1 X-29.692
N8460 G17 G3 X-29.492 Y12 I0 J0.2
N8470 X-30.492 I-0.5 J0
N8480 X-29.492 I0.5 J0
N8490 X-29.692 Y12.2 I-0.2 J0
N8500 G1 X-29.792
N8510 G18 G3 X-29.992 Z-4.8 I0 K0.2
N8520 G1 Z3
N8530 X-12 Y-0.2
N8540 Z1.5
N8550 Z-0.3
N8560 G2 X-11.8 Z-0.5 I0.2 K0
N8570 G1 X-11.7
N8580 G17 G3 X-11.5 Y0 I0 J0.2
N8590 X-22.5 I-5.5 J0
N8600 X-11.5 I5.5 J0
N8610 X-11.7 Y0.2 I-0.2 J0
N8620 G1 X-11.8
N8630 G18 G3 X-12 Z-0.3 I0 K0.2
N8640 G1 Z3
N8650 Y-0.2
N8660 Z1
N8670 Z-0.8
N8680 G2 X-11.8 Z-1 I0.2 K0
N8690 G1 X-11.7
N8700 G17 G3 X-11.5 Y0 I0 J0.2
N8710 X-22.5 I-5.5 J0
N8720 X-11.5 I5.5 J0
N8730 X-11.7 Y0.2 I-0.2 J0
N8740 G1 X-11.8
N8750 G18 G3 X-12 Z-0.8 I0 K0.2
N8760 G1 Z3
N8770 Y-0.2
N8780 Z0.5
N8790 Z-1.3
N8800 G2 X-11.8 Z-1.5 I0.2 K0
N8810 G1 X-11.7
N8820 G17 G3 X-11.5 Y0 I0 J0.2
N8830 X-22.5 I-5.5 J0
N8840 X-11.5 I5.5 J0
N8850 X-11.7 Y0.2 I-0.2 J0
N8860 G1 X-11.8
N8870 G18 G3 X-12 Z-1.3 I0 K0.2
N8880 G1 Z3
N8890 Y-0.2
N8900 Z0
N8910 Z-1.8
N8920 G2 X-11.8 Z-2 I0.2 K0
N8930 G1 X-11.7
N8940 G17 G3 X-11.5 Y0 I0 J0.2
N8950 X-22.5 I-5.5 J0
N8960 X-11.5 I5.5 J0
N8970 X-11.7 Y0.2 I-0.2 J0
N8980 G1 X-11.8
N8990 G18 G3 X-12 Z-1.8 I0 K0.2
N9000 G1 Z3
N9010 Y-0.2
N9020 Z-0.5
N9030 Z-2.3
N9040 G2 X-11.8 Z-2.5 I0.2 K0
N9050 G1 X-11.7
N9060 G17 G3 X-11.5 Y0 I0 J0.2
N9070 X-22.5 I-5.5 J0
N9080 X-11.5 I5.5 J0
N9090 X-11.7 Y0.2 I-0.2 J0
N9100 G1 X-11.8
N9110 G18 G3 X-12 Z-2.3 I0 K0.2
N9120 G1 Z3
N9130 Y-0.2
N9140 Z-1
N9150 Z-2.8
N9160 G2 X-11.8 Z-3 I0.2 K0
N9170 G1 X-11.7
N9180 G17 G3 X-11.5 Y0 I0 J0.2
N9190 X-22.5 I-5.5 J0
N9200 X-11.5 I5.5 J0
N9210 X-11.7 Y0.2 I-0.2 J0
N9220 G1 X-11.8
N9230 G18 G3 X-12 Z-2.8 I0 K0.2
N9240 G1 Z3
N9250 Y-0.2
N9260 Z-1.5
N9270 Z-3.3
N9280 G2 X-11.8 Z-3.5 I0.2 K0
N9290 G1 X-11.7
N9300 G17 G3 X-11.5 Y0 I0 J0.2
N9310 X-22.5 I-5.5 J0
N9320 X-11.5 I5.5 J0
N9330 X-11.7 Y0.2 I-0.2 J0
N9340 G1 X-11.8
N9350 G18 G3 X-12 Z-3.3 I0 K0.2
N9360 G1 Z3
N9370 Y-0.2
N9380 Z-2
N9390 Z-3.8
N9400 G2 X-11.8 Z-4 I0.2 K0
N9410 G1 X-11.7
N9420 G17 G3 X-11.5 Y0 I0 J0.2
N9430 X-22.5 I-5.5 J0
N9440 X-11.5 I5.5 J0
N9450 X-11.7 Y0.2 I-0.2 J0
N9460 G1 X-11.8
N9470 G18 G3 X-12 Z-3.8 I0 K0.2
N9480 G1 Z3
N9490 Y-0.2
N9500 Z-2.5
N9510 Z-4.3
N9520 G2 X-11.8 Z-4.5 I0.2 K0
N9530 G1 X-11.7
N9540 G17 G3 X-11.5 Y0 I0 J0.2
N9550 X-22.5 I-5.5 J0
N9560 X-11.5 I5.5 J0
N9570 X-11.7 Y0.2 I-0.2 J0
N9580 G1 X-11.8
N9590 G18 G3 X-12 Z-4.3 I0 K0.2
N9600 G1 Z3
N9610 Y-0.2
N9620 Z-3
N9630 Z-4.8
N9640 G2 X-11.8 Z-5 I0.2 K0
N9650 G1 X-11.7
N9660 G17 G3 X-11.5 Y0 I0 J0.2
N9670 X-22.5 I-5.5 J0
N9680 X-11.5 I5.5 J0
N9690 X-11.7 Y0.2 I-0.2 J0
N9700 G1 X-11.8
N9710 G18 G3 X-12 Z-4.8 I0 K0.2
N9720 G1 Z3
N9730 X2.5 Y-0.2
N9740 Z1.5
N9750 Z-0.3
N9760 G2 X2.7 Z-0.5 I0.2 K0
N9770 G1 X2.8
N9780 G17 G3 X3 Y0 I0 J0.2
N9790 X-3 I-3 J0
N9800 X3 I3 J0
N9810 X2.8 Y0.2 I-0.2 J0
N9820 G1 X2.7
N9830 G18 G3 X2.5 Z-0.3 I0 K0.2
N9840 G1 Z3
N9850 Y-0.2
N9860 Z1
N9870 Z-0.8
N9880 G2 X2.7 Z-1 I0.2 K0
N9890 G1 X2.8
N9900 G17 G3 X3 Y0 I0 J0.2
N9910 X-3 I-3 J0
N9920 X3 I3 J0
N9930 X2.8 Y0.2 I-0.2 J0
N9940 G1 X2.7
N9950 G18 G3 X2.5 Z-0.8 I0 K0.2
N9960 G1 Z3
N9970 Y-0.2
N9980 Z0.5
N9990 Z-1.3
N10000 G2 X2.7 Z-1.5 I0.2 K0
N10010 G1 X2.8
N10020 G17 G3 X3 Y0 I0 J0.2
N10030 X-3 I-3 J0
N10040 X3 I3 J0
N10050 X2.8 Y0.2 I-0.2 J0
N10060 G1 X2.7
N10070 G18 G3 X2.5 Z-1.3 I0 K0.2
N10080 G1 Z3
N10090 Y-0.2
N10100 Z0
N10110 Z-1.8
N10120 G2 X2.7 Z-2 I0.2 K0
N10130 G1 X2.8
N10140 G17 G3 X3 Y0 I0 J0.2
N10150 X-3 I-3 J0
N10160 X3 I3 J0
N10170 X2.8 Y0.2 I-0.2 J0
N10180 G1 X2.7
N10190 G18 G3 X2.5 Z-1.8 I0 K0.2
N10200 G1 Z3
N10210 Y-0.2
N10220 Z-0.5
N10230 Z-2.3
N10240 G2 X2.7 Z-2.5 I0.2 K0
N10250 G1 X2.8
N10260 G17 G3 X3 Y0 I0 J0.2
N10270 X-3 I-3 J0
N10280 X3 I3 J0
N10290 X2.8 Y0.2 I-0.2 J0
N10300 G1 X2.7
N10310 G18 G3 X2.5 Z-2.3 I0 K0.2
N10320 G1 Z3
N10330 Y-0.2
N10340 Z-1
N10350 Z-2.8
N10360 G2 X2.7 Z-3 I0.2 K0
N10370 G1 X2.8
N10380 G17 G3 X3 Y0 I0 J0.2
N10390 X-3 I-3 J0
N10400 X3 I3 J0
N10410 X2.8 Y0.2 I-0.2 J0
N10420 G1 X2.7
N10430 G18 G3 X2.5 Z-2.8 I0 K0.2
N10440 G1 Z3
N10450 Y-0.2
N10460 Z-1.5
N10470 Z-3.3
N10480 G2 X2.7 Z-3.5 I0.2 K0
N10490 G1 X2.8
N10500 G17 G3 X3 Y0 I0 J0.2
N10510 X-3 I-3 J0
N10520 X3 I3 J0
N10530 X2.8 Y0.2 I-0.2 J0
N10540 G1 X2.7
N10550 G18 G3 X2.5 Z-3.3 I0 K0.2
N10560 G1 Z3
N10570 Y-0.2
N10580 Z-2
N10590 Z-3.8
N10600 G2 X2.7 Z-4 I0.2 K0
N10610 G1 X2.8
N10620 G17 G3 X3 Y0 I0 J0.2
N10630 X-3 I-3 J0
N10640 X3 I3 J0
N10650 X2.8 Y0.2 I-0.2 J0
N10660 G1 X2.7
N10670 G18 G3 X2.5 Z-3.8 I0 K0.2
N10680 G1 Z3
N10690 Y-0.2
N10700 Z-2.5
N10710 Z-4.3
N10720 G2 X2.7 Z-4.5 I0.2 K0
N10730 G1 X2.8
N10740 G17 G3 X3 Y0 I0 J0.2
N10750 X-3 I-3 J0
N10760 X3 I3 J0
N10770 X2.8 Y0.2 I-0.2 J0
N10780 G1 X2.7
N10790 G18 G3 X2.5 Z-4.3 I0 K0.2
N10800 G1 Z3
N10810 Y-0.2
N10820 Z-3
N10830 Z-4.8
N10840 G2 X2.7 Z-5 I0.2 K0
N10850 G1 X2.8
N10860 G17 G3 X3 Y0 I0 J0.2
N10870 X-3 I-3 J0
N10880 X3 I3 J0
N10890 X2.8 Y0.2 I-0.2 J0
N10900 G1 X2.7
N10910 G18 G3 X2.5 Z-4.8 I0 K0.2
N10920 G1 Z3
N10930 X22 Y-0.2
N10940 Z1.5
N10950 Z-0.3
N10960 G2 X22.2 Z-0.5 I0.2 K0
N10970 G1 X22.3
N10980 G17 G3 X22.5 Y0 I0 J0.2
N10990 X11.5 I-5.5 J0
N11000 X22.5 I5.5 J0
N11010 X22.3 Y0.2 I-0.2 J0
N11020 G1 X22.2
N11030 G18 G3 X22 Z-0.3 I0 K0.2
N11040 G1 Z3
N11050 Y-0.2
N11060 Z1
N11070 Z-0.8
N11080 G2 X22.2 Z-1 I0.2 K0
N11090 G1 X22.3
N11100 G17 G3 X22.5 Y0 I0 J0.2
N11110 X11.5 I-5.5 J0
N11120 X22.5 I5.5 J0
N11130 X22.3 Y0.2 I-0.2 J0
N11140 G1 X22.2
N11150 G18 G3 X22 Z-0.8 I0 K0.2
N11160 G1 Z3
N11170 Y-0.2
N11180 Z0.5
N11190 Z-1.3
N11200 G2 X22.2 Z-1.5 I0.2 K0
N11210 G1 X22.3
N11220 G17 G3 X22.5 Y0 I0 J0.2
N11230 X11.5 I-5.5 J0
N11240 X22.5 I5.5 J0
N11250 X22.3 Y0.2 I-0.2 J0
N11260 G1 X22.2
N11270 G18 G3 X22 Z-1.3 I0 K0.2
N11280 G1 Z3
N11290 Y-0.2
N11300 Z0
N11310 Z-1.8
N11320 G2 X22.2 Z-2 I0.2 K0
N11330 G1 X22.3
N11340 G17 G3 X22.5 Y0 I0 J0.2
N11350 X11.5 I-5.5 J0
N11360 X22.5 I5.5 J0
N11370 X22.3 Y0.2 I-0.2 J0
N11380 G1 X22.2
N11390 G18 G3 X22 Z-1.8 I0 K0.2
N11400 G1 Z3
N11410 Y-0.2
N11420 Z-0.5
N11430 Z-2.3
N11440 G2 X22.2 Z-2.5 I0.2 K0
N11450 G1 X22.3
N11460 G17 G3 X22.5 Y0 I0 J0.2
N11470 X11.5 I-5.5 J0
N11480 X22.5 I5.5 J0
N11490 X22.3 Y0.2 I-0.2 J0
N11500 G1 X22.2
N11510 G18 G3 X22 Z-2.3 I0 K0.2
N11520 G1 Z3
N11530 Y-0.2
N11540 Z-1
N11550 Z-2.8
N11560 G2 X22.2 Z-3 I0.2 K0
N11570 G1 X22.3
N11580 G17 G3 X22.5 Y0 I0 J0.2
N11590 X11.5 I-5.5 J0
N11600 X22.5 I5.5 J0
N11610 X22.3 Y0.2 I-0.2 J0
N11620 G1 X22.2
N11630 G18 G3 X22 Z-2.8 I0 K0.2
N11640 G1 Z3
N11650 Y-0.2
N11660 Z-1.5
N11670 Z-3.3
N11680 G2 X22.2 Z-3.5 I0.2 K0
N11690 G1 X22.3
N11700 G17 G3 X22.5 Y0 I0 J0.2
N11710 X11.5 I-5.5 J0
N11720 X22.5 I5.5 J0
N11730 X22.3 Y0.2 I-0.2 J0
N11740 G1 X22.2
N11750 G18 G3 X22 Z-3.3 I0 K0.2
N11760 G1 Z3
N11770 Y-0.2
N11780 Z-2
N11790 Z-3.8
N11800 G2 X22.2 Z-4 I0.2 K0
N11810 G1 X22.3
N11820 G17 G3 X22.5 Y0 I0 J0.2
N11830 X11.5 I-5.5 J0
N11840 X22.5 I5.5 J0
N11850 X22.3 Y0.2 I-0.2 J0
N11860 G1 X22.2
N11870 G18 G3 X22 Z-3.8 I0 K0.2
N11880 G1 Z3
N11890 Y-0.2
N11900 Z-2.5
N11910 Z-4.3
N11920 G2 X22.2 Z-4.5 I0.2 K0
N11930 G1 X22.3
N11940 G17 G3 X22.5 Y0 I0 J0.2
N11950 X11.5 I-5.5 J0
N11960 X22.5 I5.5 J0
N11970 X22.3 Y0.2 I-0.2 J0
N11980 G1 X22.2
N11990 G18 G3 X22 Z-4.3 I0 K0.2
N12000 G1 Z3
N12010 Y-0.2
N12020 Z-3
N12030 Z-4.8
N12040 G2 X22.2 Z-5 I0.2 K0
N12050 G1 X22.3
N12060 G17 G3 X22.5 Y0 I0 J0.2
N12070 X11.5 I-5.5 J0
N12080 X22.5 I5.5 J0
N12090 X22.3 Y0.2 I-0.2 J0
N12100 G1 X22.2
N12110 G18 G3 X22 Z-4.8 I0 K0.2
N12120 G1 Z3
N12130 X4.996 Y16.8
N12140 Z1.5
N12150 Z-0.3
N12160 G2 X5.196 Z-0.5 I0.2 K0
N12170 G1 X5.296
N12180 G17 G3 X5.496 Y17 I0 J0.2
N12190 X-5.504 I-5.5 J0
N12200 X5.496 I5.5 J0
N12210 X5.296 Y17.2 I-0.2 J0
N12220 G1 X5.196
N12230 G18 G3 X4.996 Z-0.3 I0 K0.2
N12240 G1 Z3
N12250 Y16.8
N12260 Z1
N12270 Z-0.8
N12280 G2 X5.196 Z-1 I0.2 K0
N12290 G1 X5.296
N12300 G17 G3 X5.496 Y17 I0 J0.2
N12310 X-5.504 I-5.5 J0
N12320 X5.496 I5.5 J0
N12330 X5.296 Y17.2 I-0.2 J0
N12340 G1 X5.196
N12350 G18 G3 X4.996 Z-0.8 I0 K0.2
N12360 G1 Z3
N12370 Y16.8
N12380 Z0.5
N12390 Z-1.3
N12400 G2 X5.196 Z-1.5 I0.2 K0
N12410 G1 X5.296
N12420 G17 G3 X5.496 Y17 I0 J0.2
N12430 X-5.504 I-5.5 J0
N12440 X5.496 I5.5 J0
N12450 X5.296 Y17.2 I-0.2 J0
N12460 G1 X5.196
N12470 G18 G3 X4.996 Z-1.3 I0 K0.2
N12480 G1 Z3
N12490 Y16.8
N12500 Z0
N12510 Z-1.8
N12520 G2 X5.196 Z-2 I0.2 K0
N12530 G1 X5.296
N12540 G17 G3 X5.496 Y17 I0 J0.2
N12550 X-5.504 I-5.5 J0
N12560 X5.496 I5.5 J0
N12570 X5.296 Y17.2 I-0.2 J0
N12580 G1 X5.196
N12590 G18 G3 X4.996 Z-1.8 I0 K0.2
N12600 G1 Z3
N12610 Y16.8
N12620 Z-0.5
N12630 Z-2.3
N12640 G2 X5.196 Z-2.5 I0.2 K0
N12650 G1 X5.296
N12660 G17 G3 X5.496 Y17 I0 J0.2
N12670 X-5.504 I-5.5 J0
N12680 X5.496 I5.5 J0
N12690 X5.296 Y17.2 I-0.2 J0
N12700 G1 X5.196
N12710 G18 G3 X4.996 Z-2.3 I0 K0.2
N12720 G1 Z3
N12730 Y16.8
N12740 Z-1
N12750 Z-2.8
N12760 G2 X5.196 Z-3 I0.2 K0
N12770 G1 X5.296
N12780 G17 G3 X5.496 Y17 I0 J0.2
N12790 X-5.504 I-5.5 J0
N12800 X5.496 I5.5 J0
N12810 X5.296 Y17.2 I-0.2 J0
N12820 G1 X5.196
N12830 G18 G3 X4.996 Z-2.8 I0 K0.2
N12840 G1 Z3
N12850 Y16.8
N12860 Z-1.5
N12870 Z-3.3
N12880 G2 X5.196 Z-3.5 I0.2 K0
N12890 G1 X5.296
N12900 G17 G3 X5.496 Y17 I0 J0.2
N12910 X-5.504 I-5.5 J0
N12920 X5.496 I5.5 J0
N12930 X5.296 Y17.2 I-0.2 J0
N12940 G1 X5.196
N12950 G18 G3 X4.996 Z-3.3 I0 K0.2
N12960 G1 Z3
N12970 Y16.8
N12980 Z-2
N12990 Z-3.8
N13000 G2 X5.196 Z-4 I0.2 K0
N13010 G1 X5.296
N13020 G17 G3 X5.496 Y17 I0 J0.2
N13030 X-5.504 I-5.5 J0
N13040 X5.496 I5.5 J0
N13050 X5.296 Y17.2 I-0.2 J0
N13060 G1 X5.196
N13070 G18 G3 X4.996 Z-3.8 I0 K0.2
N13080 G1 Z3
N13090 Y16.8
N13100 Z-2.5
N13110 Z-4.3
N13120 G2 X5.196 Z-4.5 I0.2 K0
N13130 G1 X5.296
N13140 G17 G3 X5.496 Y17 I0 J0.2
N13150 X-5.504 I-5.5 J0
N13160 X5.496 I5.5 J0
N13170 X5.296 Y17.2 I-0.2 J0
N13180 G1 X5.196
N13190 G18 G3 X4.996 Z-4.3 I0 K0.2
N13200 G1 Z3
N13210 Y16.8
N13220 Z-3
N13230 Z-4.8
N13240 G2 X5.196 Z-5 I0.2 K0
N13250 G1 X5.296
N13260 G17 G3 X5.496 Y17 I0 J0.2
N13270 X-5.504 I-5.5 J0
N13280 X5.496 I5.5 J0
N13290 X5.296 Y17.2 I-0.2 J0
N13300 G1 X5.196
N13310 G18 G3 X4.996 Z-4.8 I0 K0.2
N13320 G1 Z8
N13330 M9
N13340 M30
%
